src/assets/icons/RoundIcon.svg

<svg viewBox="0 0 16 16" fill="none" xmlns="http://www.w3.org/2000/svg">
<path d="M13.6699 7.24516H12.0952L11.5703 9.11284H13.1694L12.4492 11.6397H10.8501L10.2397 13.9468H7.37109L7.99365 11.6397H6.44336L5.8208 13.9468H2.93994L3.59912 11.6397H2L2.72021 9.11284H4.29492L4.81982 7.24516H3.2207L3.9165 4.71831H5.51562L6.1748 2.33794H9.01904L8.37207 4.71831H9.92236L10.5938 2.33794H13.4502L12.7666 4.71831H14.3657L13.6699 7.24516ZM7.66406 7.24516L7.13916 9.11284H8.71387L9.25098 7.24516H7.66406Z" fill="currentColor"/>
</svg>

<svg xmlns="http://www.w3.org/2000/svg" fill="none" viewBox="0 0 16 16"><path fill="currentColor" d="M13.67 7.245h-1.575l-.525 1.868h1.6l-.72 2.527h-1.6l-.61 2.307H7.37l.623-2.307h-1.55l-.623 2.307H2.94l.66-2.307H2l.72-2.527h1.575l.525-1.868h-1.6l.696-2.527h1.6l.659-2.38h2.844l-.647 2.38h1.55l.672-2.38h2.856l-.683 2.38h1.599l-.696 2.527Zm-6.006 0L7.14 9.113h1.575l.537-1.868H7.664Z"/></svg>
